MA5T1/108/aimg/morado.svg

<svg clip-rule="evenodd" fill-rule="evenodd" stroke-linejoin="round" stroke-miterlimit="2" viewBox="0 0 237 119" xmlns="http://www.w3.org/2000/svg"><path d="m381.506 561.581h14.173v14.173h-14.173zm14.173 0h14.173v14.173h-14.173zm14.173 0h14.173v14.173h-14.173zm14.173 0h14.173v14.173h-14.173zm-42.519 14.173h14.173v14.173h-14.173zm14.173 0h14.173v14.173h-14.173zm14.173 0h14.173v14.173h-14.173zm14.173 0h14.173v14.173h-14.173z" fill="#d7a5cb" fill-rule="nonzero" transform="matrix(4.16667 0 0 4.16667 -1589.6 -2339.92628718)"/></svg>

<?xml version="1.0" encoding="UTF-8" standalone="no"?>
<!DOCTYPE svg PUBLIC "-//W3C//DTD SVG 1.1//EN" "http://www.w3.org/Graphics/SVG/1.1/DTD/svg11.dtd">
<svg width="100%" height="100%" viewBox="0 0 237 119" version="1.1" xmlns="http://www.w3.org/2000/svg" xmlns:xlink="http://www.w3.org/1999/xlink" xml:space="preserve" xmlns:serif="http://www.serif.com/" style="fill-rule:evenodd;clip-rule:evenodd;stroke-linejoin:round;stroke-miterlimit:2;">
    <g transform="matrix(1,0,0,1,-15209.2,-7906.14)">
        <g transform="matrix(4.16667,0,0,4.16667,13619.6,7175.19)">
            <g transform="matrix(1,0,0,1,0,-386.154)">
                <path d="M381.506,561.581L395.679,561.581L395.679,575.754L381.506,575.754L381.506,561.581ZM395.679,561.581L409.852,561.581L409.852,575.754L395.679,575.754L395.679,561.581ZM409.852,561.581L424.025,561.581L424.025,575.754L409.852,575.754L409.852,561.581ZM424.025,561.581L438.198,561.581L438.198,575.754L424.025,575.754L424.025,561.581ZM381.506,575.754L395.679,575.754L395.679,589.927L381.506,589.927L381.506,575.754ZM395.679,575.754L409.852,575.754L409.852,589.927L395.679,589.927L395.679,575.754ZM409.852,575.754L424.025,575.754L424.025,589.927L409.852,589.927L409.852,575.754ZM424.025,575.754L438.198,575.754L438.198,589.927L424.025,589.927L424.025,575.754Z" style="fill:rgb(215,165,203);fill-rule:nonzero;"/>
            </g>
        </g>
    </g>
</svg>
